app/img/step-7/var-3.svg

<svg width="148" height="90" viewBox="0 0 148 90" fill="none" xmlns="http://www.w3.org/2000/svg">
<path d="M45 90C69.8528 90 90 69.8528 90 45C90 20.1472 69.8528 0 45 0C20.1472 0 0 20.1472 0 45C0 69.8528 20.1472 90 45 90Z" fill="#FFE14D"/>
<path d="M90 45C90 20.1869 69.8131 0 45 0V90C69.8131 90 90 69.8131 90 45Z" fill="#FFBB33"/>
<path d="M45 79.2773C26.1 79.2773 10.7227 63.9 10.7227 45C10.7227 26.1 26.1 10.7227 45 10.7227C63.9 10.7227 79.2773 26.1 79.2773 45C79.2773 63.9 63.9 79.2773 45 79.2773Z" fill="#FFBB33"/>
<path d="M79.2773 45C79.2773 26.1 63.9 10.7227 45 10.7227V79.2773C63.9 79.2773 79.2773 63.9 79.2773 45Z" fill="#E68A2E"/>
<path d="M47.6367 42.5508V32.1259C50.6693 32.87 52.9102 34.8212 52.9102 37.064C52.9102 38.5214 54.0895 39.7007 55.5469 39.7007C57.0043 39.7007 58.1836 38.5214 58.1836 37.064C58.1836 31.9695 53.6483 27.7099 47.6367 26.7305V23.8804C47.6367 22.423 46.4574 21.2437 45 21.2437C43.5426 21.2437 42.3633 22.423 42.3633 23.8804V26.7305C36.3517 27.7099 31.8164 31.9695 31.8164 37.064C31.8164 42.1585 36.3517 46.418 42.3633 47.3974V57.8223C39.3307 57.0782 37.0898 55.1271 37.0898 52.8843C37.0898 51.4269 35.9105 50.2476 34.4531 50.2476C32.9957 50.2476 31.8164 51.4269 31.8164 52.8843C31.8164 57.9788 36.3517 62.2383 42.3633 63.2178V66.0935C42.3633 67.5509 43.5426 68.7303 45 68.7303C46.4574 68.7303 47.6367 67.5509 47.6367 66.0935V63.2178C53.6483 62.2383 58.1836 57.9788 58.1836 52.8843C58.1836 47.7898 53.6483 43.5301 47.6367 42.5508V42.5508ZM37.0898 37.064C37.0898 34.8212 39.3307 32.87 42.3633 32.1259V42.002C39.3307 41.2578 37.0898 39.3066 37.0898 37.064V37.064ZM47.6367 57.8223V47.9462C50.6693 48.6903 52.9102 50.6415 52.9102 52.8843C52.9102 55.1271 50.6693 57.0781 47.6367 57.8223Z" fill="#FFE14D"/>
<path d="M47.6367 66.0935V63.2178C53.6483 62.2383 58.1836 57.9788 58.1836 52.8843C58.1836 47.7898 53.6483 43.5303 47.6367 42.5508V32.1259C50.6693 32.87 52.9102 34.8212 52.9102 37.064C52.9102 38.5214 54.0895 39.7007 55.5469 39.7007C57.0043 39.7007 58.1836 38.5214 58.1836 37.064C58.1836 31.9695 53.6483 27.7099 47.6367 26.7305V23.8804C47.6367 22.423 46.4574 21.2437 45 21.2437V68.7303C46.4574 68.7303 47.6367 67.5509 47.6367 66.0935ZM47.6367 47.9461C50.6693 48.6901 52.9102 50.6413 52.9102 52.8841C52.9102 55.1269 50.6693 57.0781 47.6367 57.8221V47.9461Z" fill="#FFBB33"/>
<path d="M74 90C98.8528 90 119 69.8528 119 45C119 20.1472 98.8528 0 74 0C49.1472 0 29 20.1472 29 45C29 69.8528 49.1472 90 74 90Z" fill="#FFE14D"/>
<path d="M119 45C119 20.1869 98.8131 0 74 0V90C98.8131 90 119 69.8131 119 45Z" fill="#FFBB33"/>
<path d="M74 79.2773C55.1 79.2773 39.7227 63.9 39.7227 45C39.7227 26.1 55.1 10.7227 74 10.7227C92.9 10.7227 108.277 26.1 108.277 45C108.277 63.9 92.9 79.2773 74 79.2773Z" fill="#FFBB33"/>
<path d="M108.277 45C108.277 26.1 92.9 10.7227 74 10.7227V79.2773C92.9 79.2773 108.277 63.9 108.277 45Z" fill="#E68A2E"/>
<path d="M76.6367 42.5508V32.1259C79.6693 32.87 81.9102 34.8212 81.9102 37.064C81.9102 38.5214 83.0895 39.7007 84.5469 39.7007C86.0043 39.7007 87.1836 38.5214 87.1836 37.064C87.1836 31.9695 82.6483 27.7099 76.6367 26.7305V23.8804C76.6367 22.423 75.4574 21.2437 74 21.2437C72.5426 21.2437 71.3633 22.423 71.3633 23.8804V26.7305C65.3517 27.7099 60.8164 31.9695 60.8164 37.064C60.8164 42.1585 65.3517 46.418 71.3633 47.3974V57.8223C68.3307 57.0782 66.0898 55.1271 66.0898 52.8843C66.0898 51.4269 64.9105 50.2476 63.4531 50.2476C61.9957 50.2476 60.8164 51.4269 60.8164 52.8843C60.8164 57.9788 65.3517 62.2383 71.3633 63.2178V66.0935C71.3633 67.5509 72.5426 68.7303 74 68.7303C75.4574 68.7303 76.6367 67.5509 76.6367 66.0935V63.2178C82.6483 62.2383 87.1836 57.9788 87.1836 52.8843C87.1836 47.7898 82.6483 43.5301 76.6367 42.5508V42.5508ZM66.0898 37.064C66.0898 34.8212 68.3307 32.87 71.3633 32.1259V42.002C68.3307 41.2578 66.0898 39.3066 66.0898 37.064V37.064ZM76.6367 57.8223V47.9462C79.6693 48.6903 81.9102 50.6415 81.9102 52.8843C81.9102 55.1271 79.6693 57.0781 76.6367 57.8223Z" fill="#FFE14D"/>
<path d="M76.6367 66.0935V63.2178C82.6483 62.2383 87.1836 57.9788 87.1836 52.8843C87.1836 47.7898 82.6483 43.5303 76.6367 42.5508V32.1259C79.6693 32.87 81.9102 34.8212 81.9102 37.064C81.9102 38.5214 83.0895 39.7007 84.5469 39.7007C86.0043 39.7007 87.1836 38.5214 87.1836 37.064C87.1836 31.9695 82.6483 27.7099 76.6367 26.7305V23.8804C76.6367 22.423 75.4574 21.2437 74 21.2437V68.7303C75.4574 68.7303 76.6367 67.5509 76.6367 66.0935ZM76.6367 47.9461C79.6693 48.6901 81.9102 50.6413 81.9102 52.8841C81.9102 55.1269 79.6693 57.0781 76.6367 57.8221V47.9461Z" fill="#FFBB33"/>
<path d="M103 90C127.853 90 148 69.8528 148 45C148 20.1472 127.853 0 103 0C78.1472 0 58 20.1472 58 45C58 69.8528 78.1472 90 103 90Z" fill="#FFE14D"/>
<path d="M148 45C148 20.1869 127.813 0 103 0V90C127.813 90 148 69.8131 148 45Z" fill="#FFBB33"/>
<path d="M103 79.2773C84.1 79.2773 68.7227 63.9 68.7227 45C68.7227 26.1 84.1 10.7227 103 10.7227C121.9 10.7227 137.277 26.1 137.277 45C137.277 63.9 121.9 79.2773 103 79.2773Z" fill="#FFBB33"/>
<path d="M137.277 45C137.277 26.1 121.9 10.7227 103 10.7227V79.2773C121.9 79.2773 137.277 63.9 137.277 45Z" fill="#E68A2E"/>
<path d="M105.637 42.5508V32.1259C108.669 32.87 110.91 34.8212 110.91 37.064C110.91 38.5214 112.089 39.7007 113.547 39.7007C115.004 39.7007 116.184 38.5214 116.184 37.064C116.184 31.9695 111.648 27.7099 105.637 26.7305V23.8804C105.637 22.423 104.457 21.2437 103 21.2437C101.543 21.2437 100.363 22.423 100.363 23.8804V26.7305C94.3517 27.7099 89.8164 31.9695 89.8164 37.064C89.8164 42.1585 94.3517 46.418 100.363 47.3974V57.8223C97.3307 57.0782 95.0898 55.1271 95.0898 52.8843C95.0898 51.4269 93.9105 50.2476 92.4531 50.2476C90.9957 50.2476 89.8164 51.4269 89.8164 52.8843C89.8164 57.9788 94.3517 62.2383 100.363 63.2178V66.0935C100.363 67.5509 101.543 68.7303 103 68.7303C104.457 68.7303 105.637 67.5509 105.637 66.0935V63.2178C111.648 62.2383 116.184 57.9788 116.184 52.8843C116.184 47.7898 111.648 43.5301 105.637 42.5508V42.5508ZM95.0898 37.064C95.0898 34.8212 97.3307 32.87 100.363 32.1259V42.002C97.3307 41.2578 95.0898 39.3066 95.0898 37.064V37.064ZM105.637 57.8223V47.9462C108.669 48.6903 110.91 50.6415 110.91 52.8843C110.91 55.1271 108.669 57.0781 105.637 57.8223Z" fill="#FFE14D"/>
<path d="M105.637 66.0935V63.2178C111.648 62.2383 116.184 57.9788 116.184 52.8843C116.184 47.7898 111.648 43.5303 105.637 42.5508V32.1259C108.669 32.87 110.91 34.8212 110.91 37.064C110.91 38.5214 112.089 39.7007 113.547 39.7007C115.004 39.7007 116.184 38.5214 116.184 37.064C116.184 31.9695 111.648 27.7099 105.637 26.7305V23.8804C105.637 22.423 104.457 21.2437 103 21.2437V68.7303C104.457 68.7303 105.637 67.5509 105.637 66.0935ZM105.637 47.9461C108.669 48.6901 110.91 50.6413 110.91 52.8841C110.91 55.1269 108.669 57.0781 105.637 57.8221V47.9461Z" fill="#FFBB33"/>
</svg>

<svg width="148" height="90" fill="none" xmlns="http://www.w3.org/2000/svg"><path d="M45 90c24.853 0 45-20.147 45-45S69.853 0 45 0 0 20.147 0 45s20.147 45 45 45z" fill="#FFE14D"/><path d="M90 45C90 20.187 69.813 0 45 0v90c24.813 0 45-20.187 45-45z" fill="#FB3"/><path d="M45 79.277C26.1 79.277 10.723 63.9 10.723 45S26.1 10.723 45 10.723 79.277 26.1 79.277 45 63.9 79.277 45 79.277z" fill="#FB3"/><path d="M79.277 45C79.277 26.1 63.9 10.723 45 10.723v68.554C63.9 79.277 79.277 63.9 79.277 45z" fill="#E68A2E"/><path d="M47.637 42.55V32.127c3.032.744 5.273 2.695 5.273 4.938a2.635 2.635 0 002.637 2.637 2.635 2.635 0 002.637-2.637c0-5.095-4.536-9.354-10.547-10.334v-2.85A2.635 2.635 0 0045 21.244a2.635 2.635 0 00-2.637 2.636v2.85c-6.011.98-10.547 5.24-10.547 10.334 0 5.094 4.536 9.354 10.547 10.333v10.425c-3.032-.744-5.273-2.695-5.273-4.938a2.635 2.635 0 00-2.637-2.636 2.635 2.635 0 00-2.637 2.636c0 5.095 4.536 9.354 10.547 10.334v2.876A2.635 2.635 0 0045 68.73a2.635 2.635 0 002.637-2.636v-2.876c6.011-.98 10.547-5.24 10.547-10.334 0-5.094-4.536-9.354-10.547-10.333zM37.09 37.065c0-2.243 2.24-4.194 5.273-4.938v9.876c-3.032-.744-5.273-2.695-5.273-4.938zm10.547 20.758v-9.876c3.032.744 5.273 2.696 5.273 4.938 0 2.243-2.24 4.194-5.273 4.938z" fill="#FFE14D"/><path d="M47.637 66.094v-2.876c6.011-.98 10.547-5.24 10.547-10.334 0-5.094-4.536-9.354-10.547-10.333V32.126c3.032.744 5.273 2.695 5.273 4.938a2.635 2.635 0 002.637 2.637 2.635 2.635 0 002.637-2.637c0-5.095-4.536-9.354-10.547-10.334v-2.85A2.635 2.635 0 0045 21.244V68.73a2.635 2.635 0 002.637-2.636zm0-18.148c3.032.744 5.273 2.695 5.273 4.938s-2.24 4.194-5.273 4.938v-9.876z" fill="#FB3"/><path d="M74 90c24.853 0 45-20.147 45-45S98.853 0 74 0 29 20.147 29 45s20.147 45 45 45z" fill="#FFE14D"/><path d="M119 45c0-24.813-20.187-45-45-45v90c24.813 0 45-20.187 45-45z" fill="#FB3"/><path d="M74 79.277C55.1 79.277 39.723 63.9 39.723 45S55.1 10.723 74 10.723 108.277 26.1 108.277 45 92.9 79.277 74 79.277z" fill="#FB3"/><path d="M108.277 45c0-18.9-15.377-34.277-34.277-34.277v68.554c18.9 0 34.277-15.377 34.277-34.277z" fill="#E68A2E"/><path d="M76.637 42.55V32.127c3.032.744 5.273 2.695 5.273 4.938a2.635 2.635 0 002.637 2.637 2.635 2.635 0 002.637-2.637c0-5.095-4.536-9.354-10.547-10.334v-2.85A2.635 2.635 0 0074 21.244a2.635 2.635 0 00-2.637 2.636v2.85c-6.011.98-10.547 5.24-10.547 10.334 0 5.094 4.536 9.354 10.547 10.333v10.425c-3.032-.744-5.273-2.695-5.273-4.938a2.635 2.635 0 00-2.637-2.636 2.635 2.635 0 00-2.637 2.636c0 5.095 4.536 9.354 10.547 10.334v2.876A2.635 2.635 0 0074 68.73a2.635 2.635 0 002.637-2.636v-2.876c6.011-.98 10.547-5.24 10.547-10.334 0-5.094-4.536-9.354-10.547-10.333zM66.09 37.065c0-2.243 2.24-4.194 5.273-4.938v9.876c-3.032-.744-5.273-2.695-5.273-4.938zm10.547 20.758v-9.876c3.032.744 5.273 2.696 5.273 4.938 0 2.243-2.24 4.194-5.273 4.938z" fill="#FFE14D"/><path d="M76.637 66.094v-2.876c6.011-.98 10.547-5.24 10.547-10.334 0-5.094-4.536-9.354-10.547-10.333V32.126c3.032.744 5.273 2.695 5.273 4.938a2.635 2.635 0 002.637 2.637 2.635 2.635 0 002.637-2.637c0-5.095-4.536-9.354-10.547-10.334v-2.85A2.635 2.635 0 0074 21.244V68.73a2.635 2.635 0 002.637-2.636zm0-18.148c3.032.744 5.273 2.695 5.273 4.938s-2.24 4.194-5.273 4.938v-9.876z" fill="#FB3"/><path d="M103 90c24.853 0 45-20.147 45-45S127.853 0 103 0 58 20.147 58 45s20.147 45 45 45z" fill="#FFE14D"/><path d="M148 45c0-24.813-20.187-45-45-45v90c24.813 0 45-20.187 45-45z" fill="#FB3"/><path d="M103 79.277C84.1 79.277 68.723 63.9 68.723 45S84.1 10.723 103 10.723 137.277 26.1 137.277 45 121.9 79.277 103 79.277z" fill="#FB3"/><path d="M137.277 45c0-18.9-15.377-34.277-34.277-34.277v68.554c18.9 0 34.277-15.377 34.277-34.277z" fill="#E68A2E"/><path d="M105.637 42.55V32.127c3.032.744 5.273 2.695 5.273 4.938a2.635 2.635 0 002.637 2.637 2.636 2.636 0 002.637-2.637c0-5.095-4.536-9.354-10.547-10.334v-2.85A2.636 2.636 0 00103 21.244a2.636 2.636 0 00-2.637 2.636v2.85c-6.011.98-10.547 5.24-10.547 10.334 0 5.094 4.536 9.354 10.547 10.333v10.425c-3.032-.744-5.273-2.695-5.273-4.938a2.635 2.635 0 00-2.637-2.636 2.635 2.635 0 00-2.637 2.636c0 5.095 4.536 9.354 10.547 10.334v2.876A2.636 2.636 0 00103 68.73a2.636 2.636 0 002.637-2.636v-2.876c6.011-.98 10.547-5.24 10.547-10.334 0-5.094-4.536-9.354-10.547-10.333zM95.09 37.065c0-2.243 2.24-4.194 5.273-4.938v9.876c-3.032-.744-5.273-2.695-5.273-4.938zm10.547 20.758v-9.876c3.032.744 5.273 2.696 5.273 4.938 0 2.243-2.241 4.194-5.273 4.938z" fill="#FFE14D"/><path d="M105.637 66.094v-2.876c6.011-.98 10.547-5.24 10.547-10.334 0-5.094-4.536-9.354-10.547-10.333V32.126c3.032.744 5.273 2.695 5.273 4.938a2.635 2.635 0 002.637 2.637 2.636 2.636 0 002.637-2.637c0-5.095-4.536-9.354-10.547-10.334v-2.85A2.636 2.636 0 00103 21.244V68.73a2.636 2.636 0 002.637-2.636zm0-18.148c3.032.744 5.273 2.695 5.273 4.938s-2.241 4.194-5.273 4.938v-9.876z" fill="#FB3"/></svg>
